static/assets/svg/human/humanClothes/female_shoes/female_shoes14.svg

<svg class="shoes" width="86" height="380" viewBox="202.715 584.407 86.593 380.048" xmlns="http://www.w3.org/2000/svg"><defs><linearGradient id="e" y2="369.22" gradientUnits="userSpaceOnUse" x2="64.287" gradientTransform="translate(-349.98 10.323)" y1="499.59" x1="63.871"><stop offset="0" stop-color="#77111b"/><stop offset="1" stop-color="#ad0117"/></linearGradient><linearGradient id="f" y2="252.41" gradientUnits="userSpaceOnUse" x2="-351.68" gradientTransform="translate(-88.078 -7.503)" y1="519.46" x1="-69.347"><stop offset="0" stop-color="#ab0215"/><stop offset="1" stop-color="maroon"/></linearGradient><linearGradient id="g" y2="518.6" gradientUnits="userSpaceOnUse" x2="-191.68" gradientTransform="translate(-88.078 -5.646)" y1="518.6" x1="-202.41"><stop offset="0" stop-color="#1a1a1a"/><stop offset=".5" stop-color="#666"/><stop offset="1" stop-color="#1a1a1a"/></linearGradient><linearGradient id="h" y2="395.01" gradientUnits="userSpaceOnUse" x2="-275.38" y1="334.33" x1="-307.05"><stop offset="0" stop-color="#ff2a2a"/><stop offset="1" stop-color="#ff2a2a" stop-opacity="0"/></linearGradient><linearGradient id="i" y2="508.83" gradientUnits="userSpaceOnUse" x2="-172.76" y1="421" x1="-113.82" gradientTransform="matrix(.54394 0 0 1 -111.99 0)"><stop offset="0" stop-color="red"/><stop offset="1" stop-color="red" stop-opacity="0"/></linearGradient><filter id="b" x="-.107" width="1.215" y="-1.095" height="3.191" color-interpolation-filters="sRGB"><feGaussianBlur stdDeviation="3.805"/></filter><filter id="c" x="-.248" width="1.496" y="-.421" height="1.841" color-interpolation-filters="sRGB"><feGaussianBlur stdDeviation="12.438"/></filter><filter id="d" x="-.117" width="1.235" y="-.588" height="2.176" color-interpolation-filters="sRGB"><feGaussianBlur stdDeviation="4.664"/></filter><radialGradient id="a" gradientUnits="userSpaceOnUse" cx="247.441" cy="923.991" r="4.116"><stop offset="0" stop-color="#f40f0f"/><stop offset="1" stop-color="#960707"/></radialGradient></defs><g color="#000"><path d="M256.19 942.55l-1.135.32c-.97-5.991-4.473-16.505-4.473-16.505l.83-6.924 4.777 23.108z" style="marker:none" fill="#4c0000" overflow="visible"/><path d="M256.19 942.55c.304-.134.377-.542.377-.542-1.59-6.714-6.79-15.092-6.042-20.254-.56.645.017 2.493.017 2.493.196 4.131 3.813 13.664 5.155 17.065.076.2.148.378.209.532.18.452.283.705.283.705z" style="marker:none" overflow="visible" fill="#a9945b"/><path d="M237.663 953.296l-.513-.08c-.895-.636-1.203-2.526-1.203-2.526.888-1.114 3.002-2.79 3.574-3.12 1.135-.647 2.404-.04 3.105.57l.466 3.753-5.43 1.403z" style="marker:none" overflow="visible"/><path d="M237.072 952.462l1.292 1.368c4.965-1.314 8.967-4.607 9.616-4.994 4.163-2.479 1.967-5.375 2.175-5.886l-9.642 7.798c-.722.5-3.44 1.714-3.44 1.714z" style="marker:none" overflow="visible"/><path d="M251.525 918.868s.221-.231-.495 1.967c0 0-.204 1.053-.494 2.305 0 0-1.831 2.182-2.093 3.668 0 0-.029 1.581-.476 1.89-.135.093-.182.259-.297.339 0 0-.148.032-.397.07-.576.087-1.691.203-2.759.02-.439-.138-.542.085-.839-.312-.328-.44-.457-.527-.252-1.125.148-.473 1.172-1.44 1.261-1.596-.481.656.612.554.612.554.641-.015 1.675.248 1.675.248 1.005.131 1.297-.452 1.297-.452.553-1.195 1.894-4.691 1.894-4.691.335-.816 1.142-2.495 1.142-2.495.234-.6.142-.492.142-.492l.079.102z" style="marker:none" overflow="visible" fill="url(#a)" transform="matrix(2.85252 -1.73156 .90458 2.91777 -1297.785 -1335.776)"/><path d="M251.282 929.291c.434.247.913.072 1.35.072-.578-.024-.9-.048-1.35-.072z" style="marker:none" fill="#fff" overflow="visible" filter="url(#b)" transform="matrix(2.85252 -1.73156 .90458 2.91777 -1297.785 -1335.776)"/><path d="M245.359 928.086c1.195-.452 1.309-.661 1.545-.865.328-.285.418-.147.34 0-.316.598-1.679.927-1.679.927-.196.103-.206-.062-.206-.062z" style="marker:none" fill="#fff" overflow="visible" filter="url(#c)" transform="matrix(2.85252 -1.73156 .90458 2.91777 -1297.785 -1335.776)"/><path d="M243.484 928.58c.39.447 1.123.286 1.515.217-.338-.02-1.166.05-1.515-.217z" style="marker:none" fill="#fff" overflow="visible" filter="url(#d)" transform="matrix(2.85252 -1.73156 .90458 2.91777 -1297.785 -1335.776)"/></g><path d="M252.265 933.214l-.297 17.69 1.436.084s-.178-3.978.05-5.953c.207-1.784.668-3.545 1.19-5.282.214-.71.578-1.385.793-2.096.517-1.708 1.649-.88 1.685-1.592.043-.838-.985-1.516-1.784-2.013-.48-.298-1.118-.35-1.685-.502-.459-.124-.093-.146-1.388-.336z" fill="#a9945b"/><path d="M-305.45 389.94s-1.451 6.075-.823 7.34c3.99 8.036 6.916 14.807 9.292 22.019 3.051 9.264 5.848 18.664 7.576 28.264 1.269 7.058 1.766 14.253 2.022 21.421.296 8.278-.071 16.574-.564 24.842-.35 5.851-1.694 17.503-1.694 17.503l7.775-.436s-.665-33.6-.306-50.395c.18-8.437 1.233-21.2 1.234-25.288 0-1.013 1.324-2.937 2.623-3.724 1.939-1.174 6.741-.895 6.741-.895l-14.68-37.828-19.196-2.823z" fill="url(#e)" transform="matrix(.24827 0 0 .21 322.897 843.791)"/><path d="M-237.576 512.204c2.176 2.047 3.287 4.888 6.165 5.69 15.266 4.26 31.586 2.877 47.427 3.388 27.464.885 8.08 2.426 39.27 1.292 2.796-.101 2.427-5.268 1.823-7.904-1.202-5.242-5.963-9.151-10.111-12.574-5.05-4.168-11.313-6.683-17.365-9.182-6.303-2.604-13.291-3.31-19.562-5.989-3.507-1.498-1.446-1.184-5.213-1.77-6.057-.942 3.887 2.459-1.478 4.322-4.613 1.601 13.948-1.611 9.131-.816a62.588 62.588 0 0 1-17.566.399c-5.882-.705-11.889-1.904-17.167-4.593-4.426-2.254-8.214-5.726-11.578-9.38-2.4-2.607-4.295-5.671-5.989-8.783-3.934-7.229-6.979-14.948-9.581-22.756-2.95-8.849-4.786-18.037-6.787-27.148-1.686-7.673-2.726-15.478-4.392-23.156-3.443-15.866-18.502-26.367-23.6-41.781-1.292-3.907-4.267-7.295-4.795-11.376-.12-.933.396 2.025.256 1.094-.18-1.202-.004-.309.31.472.393.978-.097 1.515.371.728 0 0 .633 2.057.149.772-1.856-4.922.815-7.188-2.708-3.535-.146.151-.286.302-.421.453-4.121 4.592-3.463 9.011-6.491 14.648-3.453 6.428-7.398 12.839-8.983 19.962-.94 4.222-.549 8.663-.198 12.975.214 2.628.021 5.537 1.397 7.787 1.765 2.885 5.509 3.94 8.075 6.144 6.258 5.378 12.395 10.972 17.785 17.22 4.061 4.708 7.834 9.732 10.868 15.159 3.522 6.299 5.894 13.188 8.383 19.962 2.889 7.862 5.26 15.908 7.586 23.954 1.604 5.551 4.527 9.63 6.205 15.159 1.064 3.504 2.056 7.057 3.594 10.38 1.428 3.086 2.713 6.453 5.19 8.783z" fill="url(#f)" transform="matrix(.24827 0 0 .21 322.897 843.791)"/><path d="M246.667 924.273c-.004.507.044 1.02.093 1.522.053.552.007 1.162.349 1.634.438.606 1.373.83 2.01 1.293 1.553 1.13 3.076 2.304 4.414 3.616.852.835.902.877 1.583 1.818h.155c-.713-1.021-.823-1.13-1.738-2.028-1.338-1.312-2.86-2.487-4.415-3.616-.636-.463-1.57-.687-2.01-1.293-.34-.472-.295-1.082-.348-1.634a17.485 17.485 0 0 1-.093-1.312z" fill="maroon"/><path d="M-289.64 510.55l9.316-.565.565 5.646-10.727.283.846-5.364z" fill="url(#g)" transform="matrix(.24827 0 0 .21 322.897 843.791)"/><path d="M-288.493 342.226c-1.424 3.016 1.949-3.763-1.575-.11-4.588 4.756-4.271 8.626-7.398 14.448-3.452 6.428-7.414 12.847-9 19.969-.94 4.222-.538 8.657-.187 12.969.213 2.628.03 5.531 1.406 7.781 1.764 2.885 5.497 3.952 8.062 6.156 3.415 2.934 6.791 5.929 10.031 9.063l23.75-30.812c-2.449-11.424-19.249-16.805-20.745-28.376-1.292-9.99-1.646-1.276-2.173-5.357-.12-.934-3.124-6.728-2.521-7.45.539-.647-2.748 3.109-1.908 3.156 1.903.105 4.068 3.507 1.951-4.023 0 0 1.318.831-.053.92l.36 1.666z" fill="url(#h)" transform="matrix(.24827 0 0 .21 322.897 843.791)"/><path d="M-198.929 490.102c-2.923-.132-7.161-.509-10 1.057-2.544 1.403-2.428-1.454-5.049-.659-3.143.954-6.389 1.104-9.552.406a26.733 26.733 0 0 1-2.822-.781l-17.393 12.766c.167.802.347 1.595.543 2.375.777 3.086 1.475 6.451 2.822 8.781 1.184 2.047.956 4.9 2.521 5.703 8.303 4.259 17.186 2.864 25.803 3.375 14.939.885 27.859.571 44.824-.562 1.521-.102 6.834-1.953 4.178-2.009-19.702-.416-6.426-15.037-8.683-18.46-2.746-4.167-6.142-6.687-9.434-9.187-3.428-2.604-.444 2.06-3.855-.619-1.908-1.498-4.297-.608-6.357-1.05-.196-.042 3.284-.259 3.089-.267l-10.635-.869z" fill="url(#i)" transform="matrix(.24827 0 0 .21 322.897 843.791)"/></svg>

<svg class="shoes" width="86" height="380" viewBox="202.715 584.407 86.5933 380.048" preserveAspectRatio="xMidYMid meet" xmlns="http://www.w3.org/2000/svg">
  <defs id="svgEditorDefs">
    <path id="svgEditorClosePathDefs" class="lines" fill="black" style="stroke-width: 0px; stroke: none;"/>
    <linearGradient id="linearGradient4242" y2="369.22" gradientUnits="userSpaceOnUse" x2="64.287" gradientTransform="translate(-349.98 10.323)" y1="499.59" x1="63.871">
      <stop id="stop3043" style="stop-color:#77111b" offset="0"/>
      <stop id="stop3045" style="stop-color:#ad0117" offset="1"/>
    </linearGradient>
    <linearGradient id="linearGradient4246" y2="252.41" gradientUnits="userSpaceOnUse" x2="-351.68" gradientTransform="matrix(1, 0, 0, 1, -88.078058, -7.503106)" y1="519.46" x1="-69.347">
      <stop id="stop4090" style="stop-color:#ab0215" offset="0"/>
      <stop id="stop4092" style="stop-color:#800000" offset="1"/>
    </linearGradient>
    <linearGradient id="linearGradient4248" y2="518.6" gradientUnits="userSpaceOnUse" x2="-191.68" gradientTransform="translate(-88.078 -5.646)" y1="518.6" x1="-202.41">
      <stop id="stop3117" style="stop-color:#1a1a1a" offset="0"/>
      <stop id="stop3123" style="stop-color:#666666" offset="0.5"/>
      <stop id="stop3119" style="stop-color:#1a1a1a" offset="1"/>
    </linearGradient>
    <linearGradient id="linearGradient4250" y2="395.01" gradientUnits="userSpaceOnUse" x2="-275.38" y1="334.33" x1="-307.05">
      <stop id="stop4141" style="stop-color:#ff2a2a" offset="0"/>
      <stop id="stop4143" style="stop-color:#ff2a2a;stop-opacity:0" offset="1"/>
    </linearGradient>
    <linearGradient id="linearGradient4252" y2="508.83" gradientUnits="userSpaceOnUse" x2="-172.76" y1="421" x1="-113.82" gradientTransform="matrix(0.543938, 0, 0, 1, -111.990459, 0.000238)">
      <stop id="stop4167" style="stop-color:#ff0000" offset="0"/>
      <stop id="stop4169" style="stop-color:#ff0000;stop-opacity:0" offset="1"/>
    </linearGradient>
    <filter id="filter3946" x="-0.10738437" width="1.2147686" y="-1.0954305" height="3.190861" color-interpolation-filters="sRGB">
      <feGaussianBlur stdDeviation="3.8046439" id="feGaussianBlur3948"/>
    </filter>
    <filter id="filter4062" x="-0.24786744" width="1.4957349" y="-0.42051885" height="1.8410378" color-interpolation-filters="sRGB">
      <feGaussianBlur stdDeviation="12.437693" id="feGaussianBlur4064"/>
    </filter>
    <filter id="filter4070" x="-0.11732027" width="1.2346405" y="-0.5877952" height="2.1755905" color-interpolation-filters="sRGB">
      <feGaussianBlur stdDeviation="4.6643599" id="feGaussianBlur4072"/>
    </filter>
    <radialGradient id="gradient-2" gradientUnits="userSpaceOnUse" cx="247.441" cy="923.991" r="4.116">
      <stop offset="0" style="stop-color: rgba(244, 15, 15, 1)"/>
      <stop offset="1" style="stop-color: rgba(150, 7, 7, 1)"/>
    </radialGradient>
  </defs>
  <g transform="matrix(2.852523, -1.731557, 0.904582, 2.91777, -1297.784546, -1335.776123)">
    <path id="path4402" d="M 250.088 929.26 L 249.724 929.154 C 249.986 927.256 249.914 923.61 249.914 923.61 L 250.792 921.758 L 250.088 929.26 Z" style="color: rgb(0, 0, 0); fill: rgb(76, 0, 0); stroke: rgb(152, 1, 1); stroke-width: 2; stroke-linecap: butt; stroke-linejoin: miter; stroke-miterlimit: 4; stroke-dasharray: none; stroke-dashoffset: 0; marker: none; visibility: visible; display: inline; overflow: visible; stroke-opacity: 0;"/>
    <path id="path4407" d="M 250.088 929.26 C 250.19 929.275 250.249 929.17 250.249 929.17 C 250.394 926.955 249.626 923.628 250.319 922.27 C 250.095 922.358 250.096 922.992 250.096 922.992 C 249.776 924.218 249.971 927.601 250.056 928.817 C 250.06 928.888 250.065 928.952 250.069 929.007 C 250.081 929.169 250.088 929.26 250.088 929.26 L 250.088 929.26 Z" style="color: rgb(0, 0, 0); fill-opacity: 1; stroke: rgb(0, 0, 0); stroke-width: 2; stroke-linecap: butt; stroke-linejoin: miter; stroke-miterlimit: 4; stroke-dasharray: none; stroke-dashoffset: 0; marker: none; visibility: visible; display: inline; overflow: visible; stroke-opacity: 0; fill: rgb(169, 148, 91);"/>
    <path id="path4417" d="M 243.639 929.116 L 243.495 929.003 C 243.289 928.663 243.371 928.064 243.371 928.064 C 243.735 927.898 244.512 927.785 244.711 927.79 C 245.105 927.802 245.424 928.199 245.575 928.498 L 245.369 929.662 L 243.639 929.116 Z" style="color: rgb(0, 0, 0); fill: rgb(0, 0, 0); fill-opacity: 1; stroke: rgb(0, 0, 0); stroke-width: 2; stroke-linecap: butt; stroke-linejoin: miter; stroke-miterlimit: 4; stroke-dasharray: none; stroke-dashoffset: 0; marker: none; visibility: visible; display: inline; overflow: visible; stroke-opacity: 0;"/>
    <path id="path4436" d="M 243.541 928.772 L 243.797 929.393 C 245.382 929.883 246.864 929.634 247.091 929.636 C 248.546 929.65 248.163 928.43 248.271 928.319 L 244.713 928.88 C 244.454 928.898 243.541 928.772 243.541 928.772 Z" style="color: rgb(0, 0, 0); fill: rgb(0, 0, 0); fill-opacity: 1; stroke: rgb(0, 0, 0); stroke-width: 2; stroke-linecap: butt; stroke-linejoin: miter; stroke-miterlimit: 4; stroke-dasharray: none; stroke-dashoffset: 0; marker: none; visibility: visible; display: inline; overflow: visible; stroke-opacity: 0;"/>
    <path id="path4487" d="M 251.525 918.868 C 251.525 918.868 251.746 918.637 251.03 920.835 C 251.03 920.835 250.826 921.888 250.536 923.14 C 250.536 923.14 248.705 925.322 248.443 926.808 C 248.443 926.808 248.414 928.389 247.967 928.698 C 247.832 928.791 247.785 928.957 247.67 929.037 C 247.67 929.037 247.522 929.069 247.273 929.107 C 246.697 929.194 245.582 929.31 244.514 929.127 C 244.075 928.989 243.972 929.212 243.675 928.815 C 243.347 928.375 243.218 928.288 243.423 927.69 C 243.571 927.217 244.595 926.25 244.684 926.094 C 244.203 926.75 245.296 926.648 245.296 926.648 C 245.937 926.633 246.971 926.896 246.971 926.896 C 247.976 927.027 248.268 926.444 248.268 926.444 C 248.821 925.249 250.162 921.753 250.162 921.753 C 250.497 920.937 251.304 919.258 251.304 919.258 C 251.538 918.658 251.446 918.766 251.446 918.766 L 251.525 918.868 Z" style="color: rgb(0, 0, 0); fill-opacity: 1; stroke: rgb(164, 0, 0); stroke-width: 2; stroke-linecap: butt; stroke-linejoin: miter; stroke-miterlimit: 4; stroke-dasharray: none; stroke-dashoffset: 0; marker: none; visibility: visible; display: inline; overflow: visible; stroke-opacity: 0; fill: url(#gradient-2);"/>
    <path id="path4580" d="M 251.282 929.291 C 251.716 929.538 252.195 929.363 252.632 929.363 C 252.054 929.339 251.732 929.315 251.282 929.291 Z" style="color: rgb(0, 0, 0); fill: rgb(255, 255, 255); fill-opacity: 1; stroke: none; stroke-width: 2; marker: none; visibility: visible; display: inline; overflow: visible; filter: url(#filter3946); stroke-opacity: 0;"/>
    <path id="path4588" d="M 245.359 928.086 C 246.554 927.634 246.668 927.425 246.904 927.221 C 247.232 926.936 247.322 927.074 247.244 927.221 C 246.928 927.819 245.565 928.148 245.565 928.148 C 245.369 928.251 245.359 928.086 245.359 928.086 Z" style="color: rgb(0, 0, 0); fill: rgb(255, 255, 255); fill-opacity: 1; stroke: none; stroke-width: 2; marker: none; visibility: visible; display: inline; overflow: visible; filter: url(#filter4062); stroke-opacity: 0;"/>
    <path id="path4592" d="M 243.484 928.58 C 243.874 929.027 244.607 928.866 244.999 928.797 C 244.661 928.777 243.833 928.847 243.484 928.58 Z" style="color: rgb(0, 0, 0); fill: rgb(255, 255, 255); fill-opacity: 1; stroke: none; stroke-width: 2; marker: none; visibility: visible; display: inline; overflow: visible; filter: url(#filter4070); stroke-opacity: 0;"/>
  </g>
  <g transform="matrix(0.248268, 0, 0, 0.209993, 245.902084, 911.763611)">
    <g id="g4188" transform="matrix(1, 0, 0, 1, 310.130005, -323.690002)">
      <g id="g3925" transform="translate(-65.078 -19.646)"/>
      <path id="path3065" d="M -284.5 425.84 L -285.698 510.078 L -279.911 510.477 C -279.911 510.477 -280.631 491.535 -279.709 482.131 C -278.877 473.637 -277.021 465.251 -274.918 456.979 C -274.058 453.594 -272.592 450.382 -271.724 446.998 C -269.64 438.864 -265.084 442.803 -264.937 439.413 C -264.765 435.424 -268.905 432.194 -272.124 429.831 C -274.058 428.412 -276.625 428.165 -278.911 427.436 C -280.757 426.847 -279.285 426.744 -284.5 425.839 L -284.5 425.84 Z" style="fill: rgb(169, 148, 91); stroke-opacity: 0;"/>
      <path id="path3039" style="fill: url(#linearGradient4242); stroke-opacity: 0;" d="M -305.45 389.94 C -305.45 389.94 -306.901 396.015 -306.273 397.28 C -302.283 405.316 -299.357 412.087 -296.981 419.299 C -293.93 428.563 -291.133 437.963 -289.405 447.563 C -288.136 454.621 -287.639 461.816 -287.383 468.984 C -287.087 477.262 -287.454 485.558 -287.947 493.826 C -288.297 499.677 -289.641 511.329 -289.641 511.329 L -281.866 510.893 C -281.866 510.893 -282.531 477.293 -282.172 460.498 C -281.992 452.061 -280.939 439.298 -280.938 435.21 C -280.938 434.197 -279.614 432.273 -278.315 431.486 C -276.376 430.312 -271.574 430.591 -271.574 430.591 L -286.254 392.763 L -305.45 389.94 Z"/>
      <path id="path2987" d="M -237.576 512.204 C -235.4 514.251 -234.289 517.092 -231.411 517.894 C -216.145 522.154 -199.825 520.771 -183.984 521.282 C -156.52 522.167 -175.904 523.708 -144.714 522.574 C -141.918 522.473 -142.287 517.306 -142.891 514.67 C -144.093 509.428 -148.854 505.519 -153.002 502.096 C -158.052 497.928 -164.315 495.413 -170.367 492.914 C -176.67 490.31 -183.658 489.604 -189.929 486.925 C -193.436 485.427 -191.375 485.741 -195.142 485.155 C -201.199 484.213 -191.255 487.614 -196.62 489.477 C -201.233 491.078 -182.672 487.866 -187.489 488.661 C -193.268 489.615 -199.24 489.758 -205.055 489.06 C -210.937 488.355 -216.944 487.156 -222.222 484.467 C -226.648 482.213 -230.436 478.741 -233.8 475.087 C -236.2 472.48 -238.095 469.416 -239.789 466.304 C -243.723 459.075 -246.768 451.356 -249.37 443.548 C -252.32 434.699 -254.156 425.511 -256.157 416.4 C -257.843 408.727 -258.883 400.922 -260.549 393.244 C -263.992 377.378 -279.051 366.877 -284.149 351.463 C -285.441 347.556 -288.416 344.168 -288.944 340.087 C -289.064 339.154 -288.548 342.112 -288.688 341.181 C -288.868 339.979 -288.692 340.872 -288.378 341.653 C -287.985 342.631 -288.475 343.168 -288.007 342.381 C -288.007 342.381 -287.374 344.438 -287.858 343.153 C -289.714 338.231 -287.043 335.965 -290.566 339.618 C -290.712 339.769 -290.852 339.92 -290.987 340.071 C -295.108 344.663 -294.45 349.082 -297.478 354.719 C -300.931 361.147 -304.876 367.558 -306.461 374.681 C -307.401 378.903 -307.01 383.344 -306.659 387.656 C -306.445 390.284 -306.638 393.193 -305.262 395.443 C -303.497 398.328 -299.753 399.383 -297.187 401.587 C -290.929 406.965 -284.792 412.559 -279.402 418.807 C -275.341 423.515 -271.568 428.539 -268.534 433.966 C -265.012 440.265 -262.64 447.154 -260.151 453.928 C -257.262 461.79 -254.891 469.836 -252.565 477.882 C -250.961 483.433 -248.038 487.512 -246.36 493.041 C -245.296 496.545 -244.304 500.098 -242.766 503.421 C -241.338 506.507 -240.053 509.874 -237.576 512.204 Z" style="fill: url(#linearGradient4246); stroke-opacity: 0;"/>
      <path id="path3063" style="fill: rgb(128, 0, 0); stroke-opacity: 0;" d="M -307.05 383.26 C -307.065 385.674 -306.87 388.116 -306.675 390.51 C -306.461 393.138 -306.645 396.042 -305.269 398.291 C -303.504 401.176 -299.74 402.243 -297.175 404.447 C -290.916 409.826 -284.784 415.417 -279.394 421.666 C -275.963 425.644 -275.761 425.842 -273.019 430.323 L -272.394 430.323 C -275.265 425.462 -275.707 424.941 -279.394 420.666 C -284.784 414.418 -290.917 408.825 -297.175 403.447 C -299.74 401.243 -303.504 400.176 -305.269 397.291 C -306.645 395.042 -306.461 392.138 -306.675 389.51 C -306.843 387.447 -307.014 385.345 -307.05 383.26 Z"/>
      <path id="path3113" d="M -289.64 510.55 L -280.324 509.985 L -279.759 515.631 L -290.486 515.914 L -289.64 510.55 Z" style="fill: url(#linearGradient4248); stroke-opacity: 0;"/>
      <path id="path4124" style="fill: url(#linearGradient4250); stroke-opacity: 0;" d="M -288.493 342.226 C -289.917 345.242 -286.544 338.463 -290.068 342.116 C -294.656 346.872 -294.339 350.742 -297.466 356.564 C -300.918 362.992 -304.88 369.411 -306.466 376.533 C -307.406 380.755 -307.004 385.19 -306.653 389.502 C -306.44 392.13 -306.623 395.033 -305.247 397.283 C -303.483 400.168 -299.75 401.235 -297.185 403.439 C -293.77 406.373 -290.394 409.368 -287.154 412.502 L -263.404 381.69 C -265.853 370.266 -282.653 364.885 -284.149 353.314 C -285.441 343.324 -285.795 352.038 -286.322 347.957 C -286.442 347.023 -289.446 341.229 -288.843 340.507 C -288.304 339.86 -291.591 343.616 -290.751 343.663 C -288.848 343.768 -286.683 347.17 -288.8 339.64 C -288.8 339.64 -287.482 340.471 -288.853 340.56 L -288.493 342.226 Z"/>
      <path id="path4160" style="fill: url(#linearGradient4252); stroke-opacity: 0;" d="M -198.929 490.102 C -201.852 489.97 -206.09 489.593 -208.929 491.159 C -211.473 492.562 -211.357 489.705 -213.978 490.5 C -217.121 491.454 -220.367 491.604 -223.53 490.906 C -224.471 490.699 -225.411 490.443 -226.352 490.125 L -243.745 502.891 C -243.578 503.693 -243.398 504.486 -243.202 505.266 C -242.425 508.352 -241.727 511.717 -240.38 514.047 C -239.196 516.094 -239.424 518.947 -237.859 519.75 C -229.556 524.009 -220.673 522.614 -212.056 523.125 C -197.117 524.01 -184.197 523.696 -167.232 522.563 C -165.711 522.461 -160.398 520.61 -163.054 520.554 C -182.756 520.138 -169.48 505.517 -171.737 502.094 C -174.483 497.927 -177.879 495.407 -181.171 492.907 C -184.599 490.303 -181.615 494.967 -185.026 492.288 C -186.934 490.79 -189.323 491.68 -191.383 491.238 C -191.579 491.196 -188.099 490.979 -188.294 490.971 L -198.929 490.102 Z"/>
    </g>
  </g>
</svg>
